src/telerik-icons/solid/barcode.svg

<?xml version="1.0" encoding="utf-8"?>
<svg xmlns="http://www.w3.org/2000/svg" width="512" height="512" viewBox="0 0 512 512">
  <path d="M480 64H32C14.3 64 0 78.3 0 96v320c0 17.7 14.3 32 32 32h448c17.7 0 32-14.3 32-32V96c0-17.7-14.3-32-32-32zM96 384H64V128h32v256zm96-32h-64V128h64v224zm64 0h-32V128h32v224zm64 0h-32V128h32v224zm64 0h-32V128h32v224zm64 32h-32V128h32v256z"/>
</svg>

<?xml version="1.0" encoding="utf-8"?>
<!-- Generator: Adobe Illustrator 24.2.0, SVG Export Plug-In . SVG Version: 6.00 Build 0)  -->
<svg xmlns="http://www.w3.org/2000/svg" width="512" height="512" viewBox="0 0 512 512">
<path d="M480,64H32C14.3,64,0,78.3,0,96v320c0,17.7,14.3,32,32,32h448c17.7,0,32-14.3,32-32V96C512,78.3,497.7,64,480,64z M96,384
	H64V128h32V384z M192,352h-64V128h64V352z M256,352h-32V128h32V352z M320,352h-32V128h32V352z M384,352h-32V128h32V352z M448,384
	h-32V128h32V384z" />
</svg>
